packages/core/src/svgs/tokens/mono/AMPL.svg

<svg width="24" height="24" viewBox="0 0 24 24" fill="none" xmlns="http://www.w3.org/2000/svg">
<path d="M18.8812 17.2716C20.1556 20.3032 20.9828 20.9289 21.8779 20.9289C22.0407 20.9289 22.0407 21.6433 21.8779 21.6433H14.9995C14.8367 21.6433 14.8367 20.9289 14.9995 20.9289C16.4911 20.9289 17.3396 20.8604 16.4446 18.786L11.1893 6.44608L6.8306 17.4738C5.85413 20.0267 6.94632 20.9289 8.98071 20.9289C9.14288 20.9289 9.14288 21.6433 8.98071 21.6433H2.10179C1.96607 21.6433 1.96607 20.9289 2.10179 20.9289C3.56615 20.9289 4.34547 20.3989 5.72841 16.7931L11.668 2.46444C11.6952 2.33729 12.1015 2.30515 12.1559 2.46444L18.8812 17.2716Z" fill="white"/>
</svg>

<svg xmlns="http://www.w3.org/2000/svg" width="24" height="24" fill="none" viewBox="0 0 24 24">
    <path fill="#fff" d="M18.881 17.272c1.275 3.031 2.102 3.657 2.997 3.657.163 0 .163.714 0 .714h-6.879c-.162 0-.162-.714 0-.714 1.492 0 2.34-.069 1.446-2.143l-5.256-12.34-4.358 11.028c-.977 2.553.115 3.455 2.15 3.455.162 0 .162.714 0 .714H2.1c-.135 0-.135-.714 0-.714 1.465 0 2.244-.53 3.627-4.136l5.94-14.329c.027-.127.434-.159.488 0z"/>
</svg>
